icons/svg/beaker.svg

<svg width="24" height="24" viewBox="0 0 24 24" fill="none" xmlns="http://www.w3.org/2000/svg">
<path d="M9.45624 3.75V8.8401C9.45624 9.46445 9.26152 10.0733 8.89918 10.5817L7.16284 13.0184M9.45624 3.75H7.80624M9.45624 3.75H14.5438M14.5438 3.75V8.8401C14.5438 9.46445 14.7385 10.0733 15.1008 10.5817L16.8372 13.0184M14.5438 3.75H16.1938M7.16284 13.0184L4.78507 16.3551C3.94966 17.5275 4.29258 19.1632 5.52849 19.9014C5.91053 20.1295 6.34721 20.25 6.7922 20.25H17.2078C17.6528 20.25 18.0895 20.1295 18.4715 19.9014C19.7074 19.1632 20.0503 17.5275 19.2149 16.3551L16.8372 13.0184M7.16284 13.0184H16.8372" stroke="currentColor" stroke-width="1.5" stroke-linecap="round" stroke-linejoin="round"/>
</svg>

<svg xmlns="http://www.w3.org/2000/svg" width="24" height="24" fill="none" viewBox="0 0 24 24"><path stroke="currentColor" stroke-linecap="round" stroke-linejoin="round" stroke-width="1.5" d="M9.456 3.75v5.09a3 3 0 0 1-.557 1.742l-1.736 2.436M9.456 3.75h-1.65m1.65 0h5.088m0 0v5.09a3 3 0 0 0 .557 1.742l1.736 2.436M14.544 3.75h1.65m-9.031 9.268-2.378 3.337a2.465 2.465 0 0 0 2.007 3.895h10.416a2.465 2.465 0 0 0 2.007-3.895l-2.378-3.337m-9.674 0h9.674"/></svg>
